desc: Stereo Widener
//width:3<0,6,0.1>Stereo Width
//reimplemented from: https://www.musicdsp.org/en/latest/Effects/256-stereo-width-control-obtained-via-transfromation-matrix.html

@init
width = 3;

@sample
coef_S = width * 0.5;

m = (spl0 + spl1) * 0.5;
s = (spl1 - spl0) * coef_S;

spl0 = m - s;
spl1 = m + s;
